X:1
T:Walc Barbary
T:Walc Barbary
T:z filmu Noce i dnie
%%score 1 2 3
L:1/8
Q:1/4=140
M:3/4
K:F
V:1 treble nm="Violino" snm="V-no"
V:2 bass nm="Violoncello" snm="V-c."
V:3 bass nm="Violoncello" snm="V-c."
V:1
 A2 !>!B3 A |: ^c6- | c2 (^c2 d2 | e6) | A2 B3 A | d6- | d2 (d2 e2 | f6) | (d2 e2 f2) | g6- | %10
 g2 (f2 e2) | f6- | f2 e2 (d2 | e6) |1 z2 d2 f2 | e6 | A2 B3 A :|2 (^c6 | (A2) f2 e2 | d6) || %20
 z d ^cd ef | g6- | g2 (e2 c2) | (b2 a4) | z (A ^GA B)A | e6- | e2 (^c2 A2) | (g2 f4) | %28
 (f2 e2 d2) | b6- | b2 (c'2 b2) | a6- | a2 (g2 a2) | ^c2 !>!c3 c | (b2 a2) (ba) | d6- | d2 z4 || %37
 d2 !>!_e3 d |: ^f6- | f2 (^f2 g2 | a6) | d2 !>!_e3 d | g6- | g2 (g2 a2 | b6) | (g2 a2 b2) | c'6- | %47
 c'2 (b2 a2) | b6- | b2 (a2 (g2) |1 a6) | z2 (g2 b2 | a6) | A2 !>!B3 A :|2 (^f6 || (d2) b2 a2) | %56
 g6- | g6- | g6- | g6- | g2 z4 |] %61
V:2
 A,,2 !>!B,,3 A,, |: .A,,2 .^C,2 .C,2 | .E,,2 .^C,2 .C,2 | .A,,2 .[^C,A,]2 .[C,A,]2 | %4
 .E,,2 .[E,A,]2 .[E,A,]2 | .D,2 .[F,A,]2 .[F,A,]2 | .A,,2 .[F,A,]2 .[F,A,]2 | %7
 .D,2 .[F,A,]2 .[F,A,]2 | z2 .[F,A,]2 .[F,A,]2 | .G,,2 .[G,B,]2 .[G,B,]2 | %10
 .G,,2 .[G,B,]2 .[G,B,]2 | .D,2 .[F,A,]2 .[F,A,]2 | .A,,2 .[F,A,]2 .[F,A,]2 | %13
 .^G,,2 .[E,=B,]2 .[E,B,]2 |1 .=B,,2 .[D,=B,]2 .[D,B,]2 | .^C,2 .[C,A,]2 .[C,A,]2 | !>![^C,A,]6 :|2 %17
 D,2 E,2 E,2 | A,,2 E,2 E,2 | D,2 F,2 F,2 || !>![F,A,]6 | G,,2 G,2 G,2 | C,2 E,2 E,2 | %23
 F,,2 C,2 C,2 | C,6 | A,,2 ^C,2 C,2 | ^C,2 E,2 E,2 | z2 F,2 F,2 | z2 F,2 F,2 | G,,2 G,2 G,2 | %30
 G,,2 G,2 G,2 | D,2 F,2 F,2 | F,2 E,2 F,2 | E,,2 E,2 E,2 | A,,2 E,2 E,2 | z2 F,2 F,2 | %36
 z2 F,2 F,2 || !>!A,6 |: D,,2 ^F,2 F,2 | A,,2 ^F,2 F,2 | D,,2 ^F,2 F,2 | z2 ^F,2 F,2 | %42
 G,,2 G,2 G,2 | D,2 G,2 G,2 | A,,2 G,2 G,2 | z2 G,2 G,2 | C,2 _E,2 E,2 | G,,2 _E,2 E,2 | %48
 G,,2 G,2 G,2 | D,2 G,2 G,2 |1 ^C,2 E,2 E,2 | E,,2 E,2 E,2 | z2 D,2 ^F,2 | !>![^F,A,]6 :|2 %54
 D,2 [^F,A,]2 [F,A,]2 || D,2 [^F,A,]2 [F,A,]2 | (!>![D,B,]6 | G,6) | (!>![D,B,]6 | (G,6) | %60
 G,,2) z4 |] %61
V:3
 A,,6 |: A,6- | A,2 A,2 A,2 | ^C6 | A,2 !>!B,3 A, | F,6- | F,2 (F,2 A,2 | D6) | (D2 A,2 D2) | %9
 (B,6 | B,6) | (D,2 F,2 G,2 | A,6) | ^G,6 |1 (^G,2 =B,2 G,2) | A,2 !>!B,2 A,2 | !>!G,6 :|2 %17
 (E,2 A,2 B,2) | (A,4 G,2 | F,6) || z ((D ^CD ED)) | (G,2 E,2 D,2 | C,6) | z2 (A,2 C2 | F,6) | %25
 (A,2 G,2 F,2 | E,6) | (A,4 F,2 | D,2) z4 | (D,2 G,2 A,2 | B,6) | (D,2 F,2 G,2 | A,6) | A,6 | %34
 (G,2 A,2 G,2) | F,6- | F,2 z4 || !>!^F,6 |: A,6- | A,2 A,2 B,2 | !>!D,2 !>!_E,2 !>!D,2 | %41
 !>!^F,,2 z4 | D6- | D2 D2 _E2 | !>!G,,2 !>!_E,2 !>!D,2 | !>!B,,2 !>!A,,2 !>!G,,2 | (G,2 C2 D2 | %47
 _E6) | (G,2 B,2 C2 | D6) |1 (A,2 B,2 A,2 | G,4 E,2) | D,2 !>!_E,3 D, | D,6 :|2 A2 ^F2 D2 || %55
 (D2 B,2 A,2) | (D,2 _E,2 D,2 | _E,2 D,2 E,2) | (D,2 _E,2 D,2 | (_E,2 D,2 E,2 | B,2)) z4 |] %61

